X:1
T: Bailie Nicol Jarvie
C:
R:Reel
I:speed 232
Q:232
K:F
M:4/4
L:1/8
|:A|f2ed cA Ac|de fd ea ag|f2ed cA Ad|AG FE D1/2D1/2D DA|
f2ed cA Ac|de fd ea ag|f2ed cA Ad|AG FE D1/2D1/2D DA|
FG AF D1/2D1/2D d2|E1/2E1/2E e2 fe fa|FG AF D1/2D1/2D d2|AG FE D1/2D1/2D DA|
FG AF D1/2D1/2D d2|E1/2E1/2E e2 fe fa|fa df Ad Fd|AG FE D1/2D1/2D D:|
